X:1
T:Albuquerque, LMD
T:Albuquerque, LMD
T:William James Kirkpatrick, 1903
T:Public Domain Courtesy of the Cyber Hymnal™
C:William James Kirkpatrick, 1903
Z:Public Domain
Z:Courtesy of the Cyber Hymnal™
%%score ( 1 2 ) ( 3 4 )
L:1/8
Q:1/4=90
M:3/4
K:Ab
V:1 treble 
V:2 treble 
V:3 bass 
V:4 bass 
V:1
 [CE][CE] [CA] | [CA]3 [EB] [Ec][Ec] | [Ec]3 [DB] [CA][CA] | [CA]3 [EA] [EG][DF] | %4
 [CE]3 [CE] [CE][CA] | [CA]3 [EB] [Ec][Ec] | [Ec]3 [DB] [CA][CA] | [CA]3 E [DF][DG] | %8
 [CA]3 [Ec] [Fd][Fd] | [Fd]3 [Fd] [FA][_FB] | [Ec]3 [Ec] [Ec][EB] | [EB]3 [EB] [Ec][A=d] | %12
 [Ge]3 [DE] [CE][CA] | [CA]3 [EB] [Ec][Ec] | [Ec]3 [DB] [CA][CA] | [CA]3 E [DF][DG] | [CA]3 |] %17
V:2
 x3 | x6 | x6 | x6 | x6 | x6 | x6 | x3 E x2 | x6 | x6 | x6 | x6 | x6 | x6 | x6 | x3 E x2 | x3 |] %17
V:3
 [A,,A,][A,,A,] [A,,A,] | [A,,A,]3 [E,G,] A,A, | A,3 [E,G,] [F,A,][F,A,] | %3
 [F,A,]3 [C,A,] [D,A,][D,A,] | [A,,A,]3 [A,,A,] [A,,A,][A,,A,] | [A,,A,]3 [E,G,] A,A, | %6
 A,3 [E,G,] [F,A,][F,A,] | [F,A,]3 [C,A,] [D,A,]E, | [A,,E,]3 A, [D,A,][D,A,] | %9
 [D,A,]3 [D,A,] [D,A,][D,A,] | [A,,A,]3 [A,,A,] [E,A,][E,G,] | [E,G,]3 [E,G,] A,[F,B,] | %12
 [E,B,]3 [E,G,] [A,,A,][A,,A,] | [A,,A,]3 [E,G,] A,A, | A,3 [E,G,] [F,A,][F,A,] | %15
 [F,A,]3 [C,A,] [D,A,]E, | [A,,E,]3 |] %17
V:4
 x3 | x4 A,A, | A,3 x3 | x6 | x6 | x4 A,A, | A,3 x3 | x5 E, | x3 A, x2 | x6 | x6 | x4 A, x | x6 | %13
 x4 A,A, | A,3 x3 | x5 E, | x3 |] %17

